flaticon/grooming/manicure-4.svg

<svg xmlns="http://www.w3.org/2000/svg" width="32" height="32" viewBox="0 0 24 24">
    <path d="M14.847656 20.746094L9.152344 20.746094C8.910156 20.746094 8.746094 20.910156 8.746094 21.152344 8.746094 21.398438 8.910156 21.558594 9.152344 21.558594L14.847656 21.558594C15.089844 21.558594 15.253906 21.398438 15.253906 21.152344 15.253906 20.910156 15.089844 20.746094 14.847656 20.746094zM14.847656 19.117188L9.152344 19.117188C8.910156 19.117188 8.746094 19.28125 8.746094 19.527344 8.746094 19.769531 8.910156 19.933594 9.152344 19.933594L14.847656 19.933594C15.089844 19.933594 15.253906 19.769531 15.253906 19.527344 15.253906 19.28125 15.089844 19.117188 14.847656 19.117188zM14.847656 19.117188"/>
    <path d="M 16.472656 8.230469 L 16.472656 4.472656 C 16.472656 1.992188 14.480469 0 12 0 C 9.519531 0 7.523438 1.992188 7.523438 4.472656 L 7.523438 8.230469 C 6.226562 9.140625 5.492188 10.613281 5.492188 12.164062 L 5.492188 18.710938 C 5.492188 21.640625 7.851562 24 10.78125 24 L 13.21875 24 C 16.148438 24 18.507812 21.640625 18.507812 18.710938 L 18.507812 12.164062 C 18.507812 10.578125 17.773438 9.136719 16.472656 8.230469 Z M 8.339844 5.289062 L 8.339844 4.472656 C 8.339844 4.03125 8.417969 3.609375 8.558594 3.214844 C 8.613281 3.242188 8.675781 3.253906 8.746094 3.253906 C 8.988281 3.253906 9.152344 3.089844 9.152344 2.847656 C 9.152344 2.671875 9.066406 2.535156 8.925781 2.476562 C 9.042969 2.296875 9.175781 2.125 9.324219 1.96875 C 9.386719 2.011719 9.46875 2.035156 9.558594 2.035156 C 9.804688 2.035156 9.964844 1.871094 9.964844 1.628906 C 9.964844 1.5625 9.953125 1.5 9.929688 1.449219 C 10.519531 1.046875 11.230469 0.8125 12 0.8125 C 12.769531 0.8125 13.484375 1.054688 14.070312 1.460938 C 14.046875 1.511719 14.035156 1.570312 14.035156 1.628906 C 14.035156 1.871094 14.195312 2.035156 14.441406 2.035156 C 14.527344 2.035156 14.605469 2.011719 14.667969 1.976562 C 14.816406 2.132812 14.949219 2.304688 15.066406 2.484375 C 14.929688 2.558594 14.847656 2.703125 14.847656 2.847656 C 14.847656 3.089844 15.011719 3.253906 15.253906 3.253906 C 15.320312 3.253906 15.382812 3.242188 15.4375 3.21875 C 15.582031 3.613281 15.660156 4.035156 15.660156 4.476562 L 15.660156 10.902344 C 15.660156 11.375 15.550781 11.820312 15.355469 12.214844 C 15.324219 12.207031 15.289062 12.203125 15.253906 12.203125 C 15.011719 12.203125 14.847656 12.40625 14.847656 12.609375 C 14.847656 12.707031 14.875 12.789062 14.917969 12.855469 C 14.757812 13.035156 14.574219 13.195312 14.375 13.332031 C 14.035156 13.5625 13.640625 13.71875 13.21875 13.789062 C 13.203125 13.570312 13.042969 13.421875 12.8125 13.421875 C 12.570312 13.421875 12.40625 13.628906 12.40625 13.832031 L 11.59375 13.832031 C 11.59375 13.585938 11.429688 13.421875 11.1875 13.421875 C 10.957031 13.421875 10.800781 13.601562 10.78125 13.789062 C 10.359375 13.71875 9.964844 13.5625 9.625 13.332031 C 9.425781 13.195312 9.242188 13.035156 9.082031 12.855469 C 9.125 12.789062 9.152344 12.707031 9.152344 12.609375 C 9.152344 12.367188 8.988281 12.203125 8.746094 12.203125 C 8.710938 12.203125 8.679688 12.207031 8.648438 12.214844 C 8.597656 12.117188 8.554688 12.015625 8.515625 11.914062 C 8.484375 11.824219 8.453125 11.730469 8.429688 11.636719 C 8.371094 11.402344 8.339844 11.15625 8.339844 10.902344 Z M 17.695312 18.710938 C 17.695312 21.191406 15.703125 23.1875 13.21875 23.1875 L 10.78125 23.1875 C 8.296875 23.1875 6.304688 21.191406 6.304688 18.710938 L 6.304688 12.164062 C 6.304688 11.0625 6.753906 10.007812 7.523438 9.273438 L 7.523438 10.902344 C 7.523438 11.9375 7.941406 12.875 8.617188 13.550781 C 8.660156 13.59375 8.703125 13.632812 8.75 13.675781 C 8.835938 13.753906 8.929688 13.832031 9.023438 13.902344 C 9.648438 14.367188 10.425781 14.644531 11.269531 14.644531 L 12.730469 14.644531 C 14.808594 14.644531 16.472656 12.976562 16.472656 10.902344 L 16.472656 9.273438 C 17.246094 10.046875 17.695312 11.0625 17.695312 12.164062 Z M 17.695312 18.710938"/>
    <path d="M10.371094 12.203125C10.128906 12.203125 9.964844 12.40625 9.964844 12.609375 9.964844 12.855469 10.128906 13.015625 10.371094 13.015625 10.617188 13.015625 10.78125 12.855469 10.78125 12.609375 10.78125 12.367188 10.617188 12.203125 10.371094 12.203125zM13.628906 12.203125C13.382812 12.203125 13.21875 12.40625 13.21875 12.609375 13.21875 12.855469 13.382812 13.015625 13.628906 13.015625 13.871094 13.015625 14.035156 12.855469 14.035156 12.609375 14.035156 12.367188 13.871094 12.203125 13.628906 12.203125zM12 12.203125C11.757812 12.203125 11.59375 12.40625 11.59375 12.609375 11.59375 12.855469 11.757812 13.015625 12 13.015625 12.242188 13.015625 12.40625 12.855469 12.40625 12.609375 12.40625 12.367188 12.242188 12.203125 12 12.203125zM9.558594 10.984375C9.316406 10.984375 9.152344 11.1875 9.152344 11.390625 9.152344 11.632812 9.316406 11.796875 9.558594 11.796875 9.804688 11.796875 9.964844 11.632812 9.964844 11.390625 9.964844 11.144531 9.804688 10.984375 9.558594 10.984375zM10.371094 10.578125C10.617188 10.578125 10.78125 10.414062 10.78125 10.167969 10.78125 9.925781 10.617188 9.761719 10.371094 9.761719 10.128906 9.761719 9.964844 9.964844 9.964844 10.167969 9.964844 10.414062 10.128906 10.578125 10.371094 10.578125zM13.628906 10.578125C13.871094 10.578125 14.035156 10.414062 14.035156 10.167969 14.035156 9.925781 13.871094 9.761719 13.628906 9.761719 13.382812 9.761719 13.21875 9.964844 13.21875 10.167969 13.21875 10.414062 13.382812 10.578125 13.628906 10.578125zM12 10.578125C12.242188 10.578125 12.40625 10.414062 12.40625 10.167969 12.40625 9.925781 12.242188 9.761719 12 9.761719 11.757812 9.761719 11.59375 9.964844 11.59375 10.167969 11.59375 10.414062 11.757812 10.578125 12 10.578125zM11.1875 10.984375C10.941406 10.984375 10.78125 11.1875 10.78125 11.390625 10.78125 11.632812 10.941406 11.796875 11.1875 11.796875 11.429688 11.796875 11.59375 11.632812 11.59375 11.390625 11.59375 11.144531 11.429688 10.984375 11.1875 10.984375zM12.8125 10.984375C12.570312 10.984375 12.40625 11.1875 12.40625 11.390625 12.40625 11.632812 12.570312 11.796875 12.8125 11.796875 13.058594 11.796875 13.21875 11.632812 13.21875 11.390625 13.21875 11.144531 13.058594 10.984375 12.8125 10.984375zM14.441406 10.984375C14.195312 10.984375 14.035156 11.1875 14.035156 11.390625 14.035156 11.632812 14.195312 11.796875 14.441406 11.796875 14.683594 11.796875 14.847656 11.632812 14.847656 11.390625 14.847656 11.144531 14.683594 10.984375 14.441406 10.984375zM9.558594 9.355469C9.804688 9.355469 9.964844 9.191406 9.964844 8.949219 9.964844 8.707031 9.804688 8.542969 9.558594 8.542969 9.316406 8.542969 9.152344 8.746094 9.152344 8.949219 9.152344 9.191406 9.316406 9.355469 9.558594 9.355469zM10.371094 8.136719C10.617188 8.136719 10.78125 7.972656 10.78125 7.730469 10.78125 7.484375 10.617188 7.320312 10.371094 7.320312 10.128906 7.320312 9.964844 7.527344 9.964844 7.730469 9.964844 7.972656 10.128906 8.136719 10.371094 8.136719zM8.746094 10.578125C8.988281 10.578125 9.152344 10.414062 9.152344 10.167969 9.152344 9.925781 8.988281 9.761719 8.746094 9.761719 8.5 9.761719 8.339844 9.964844 8.339844 10.167969 8.339844 10.414062 8.5 10.578125 8.746094 10.578125zM8.746094 8.136719C8.988281 8.136719 9.152344 7.972656 9.152344 7.730469 9.152344 7.484375 8.988281 7.320312 8.746094 7.320312 8.5 7.320312 8.339844 7.527344 8.339844 7.730469 8.339844 7.972656 8.5 8.136719 8.746094 8.136719zM13.628906 7.320312C13.382812 7.320312 13.21875 7.527344 13.21875 7.730469 13.21875 7.972656 13.382812 8.136719 13.628906 8.136719 13.871094 8.136719 14.035156 7.972656 14.035156 7.730469 14.035156 7.484375 13.871094 7.320312 13.628906 7.320312zM15.253906 9.761719C15.011719 9.761719 14.847656 9.964844 14.847656 10.167969 14.847656 10.414062 15.011719 10.578125 15.253906 10.578125 15.5 10.578125 15.660156 10.414062 15.660156 10.167969 15.660156 9.925781 15.5 9.761719 15.253906 9.761719zM15.253906 7.320312C15.011719 7.320312 14.847656 7.527344 14.847656 7.730469 14.847656 7.972656 15.011719 8.136719 15.253906 8.136719 15.5 8.136719 15.660156 7.972656 15.660156 7.730469 15.660156 7.484375 15.5 7.320312 15.253906 7.320312zM8.746094 5.695312C8.988281 5.695312 9.152344 5.53125 9.152344 5.289062 9.152344 5.042969 8.988281 4.882812 8.746094 4.882812 8.5 4.882812 8.339844 5.085938 8.339844 5.289062 8.339844 5.53125 8.5 5.695312 8.746094 5.695312zM15.253906 4.882812C15.011719 4.882812 14.847656 5.085938 14.847656 5.289062 14.847656 5.53125 15.011719 5.695312 15.253906 5.695312 15.5 5.695312 15.660156 5.53125 15.660156 5.289062 15.660156 5.042969 15.5 4.882812 15.253906 4.882812zM12 7.320312C11.757812 7.320312 11.59375 7.527344 11.59375 7.730469 11.59375 7.972656 11.757812 8.136719 12 8.136719 12.242188 8.136719 12.40625 7.972656 12.40625 7.730469 12.40625 7.484375 12.242188 7.320312 12 7.320312zM11.1875 8.542969C10.941406 8.542969 10.78125 8.746094 10.78125 8.949219 10.78125 9.191406 10.941406 9.355469 11.1875 9.355469 11.429688 9.355469 11.59375 9.191406 11.59375 8.949219 11.59375 8.703125 11.429688 8.542969 11.1875 8.542969zM12.8125 9.355469C13.058594 9.355469 13.21875 9.191406 13.21875 8.949219 13.21875 8.707031 13.058594 8.542969 12.8125 8.542969 12.570312 8.542969 12.40625 8.746094 12.40625 8.949219 12.40625 9.191406 12.570312 9.355469 12.8125 9.355469zM14.441406 8.542969C14.195312 8.542969 14.035156 8.746094 14.035156 8.949219 14.035156 9.191406 14.195312 9.355469 14.441406 9.355469 14.683594 9.355469 14.847656 9.191406 14.847656 8.949219 14.847656 8.703125 14.683594 8.542969 14.441406 8.542969zM9.558594 6.914062C9.804688 6.914062 9.964844 6.753906 9.964844 6.507812 9.964844 6.265625 9.804688 6.101562 9.558594 6.101562 9.316406 6.101562 9.152344 6.304688 9.152344 6.507812 9.152344 6.753906 9.316406 6.914062 9.558594 6.914062zM10.371094 4.882812C10.128906 4.882812 9.964844 5.085938 9.964844 5.289062 9.964844 5.53125 10.128906 5.695312 10.371094 5.695312 10.617188 5.695312 10.78125 5.53125 10.78125 5.289062 10.78125 5.042969 10.617188 4.882812 10.371094 4.882812zM13.628906 4.882812C13.382812 4.882812 13.21875 5.085938 13.21875 5.289062 13.21875 5.53125 13.382812 5.695312 13.628906 5.695312 13.871094 5.695312 14.035156 5.53125 14.035156 5.289062 14.035156 5.042969 13.871094 4.882812 13.628906 4.882812zM10.371094 3.253906C10.617188 3.253906 10.78125 3.089844 10.78125 2.847656 10.78125 2.601562 10.617188 2.441406 10.371094 2.441406 10.128906 2.441406 9.964844 2.644531 9.964844 2.847656 9.964844 3.089844 10.128906 3.253906 10.371094 3.253906zM13.628906 3.253906C13.871094 3.253906 14.035156 3.089844 14.035156 2.847656 14.035156 2.601562 13.871094 2.441406 13.628906 2.441406 13.382812 2.441406 13.21875 2.644531 13.21875 2.847656 13.21875 3.089844 13.382812 3.253906 13.628906 3.253906zM12 4.882812C11.757812 4.882812 11.59375 5.085938 11.59375 5.289062 11.59375 5.53125 11.757812 5.695312 12 5.695312 12.242188 5.695312 12.40625 5.53125 12.40625 5.289062 12.40625 5.042969 12.242188 4.882812 12 4.882812zM11.1875 6.914062C11.429688 6.914062 11.59375 6.753906 11.59375 6.507812 11.59375 6.265625 11.429688 6.101562 11.1875 6.101562 10.941406 6.101562 10.78125 6.304688 10.78125 6.507812 10.78125 6.753906 10.941406 6.914062 11.1875 6.914062zM12.8125 6.914062C13.058594 6.914062 13.21875 6.753906 13.21875 6.507812 13.21875 6.265625 13.058594 6.101562 12.8125 6.101562 12.570312 6.101562 12.40625 6.304688 12.40625 6.507812 12.40625 6.753906 12.570312 6.914062 12.8125 6.914062zM14.441406 6.101562C14.195312 6.101562 14.035156 6.304688 14.035156 6.507812 14.035156 6.753906 14.195312 6.914062 14.441406 6.914062 14.683594 6.914062 14.847656 6.753906 14.847656 6.507812 14.847656 6.265625 14.683594 6.101562 14.441406 6.101562zM9.558594 4.472656C9.804688 4.472656 9.964844 4.3125 9.964844 4.066406 9.964844 3.824219 9.804688 3.660156 9.558594 3.660156 9.316406 3.660156 9.152344 3.863281 9.152344 4.066406 9.152344 4.3125 9.316406 4.472656 9.558594 4.472656zM11.1875 3.660156C10.941406 3.660156 10.78125 3.863281 10.78125 4.066406 10.78125 4.3125 10.941406 4.472656 11.1875 4.472656 11.429688 4.472656 11.59375 4.3125 11.59375 4.066406 11.59375 3.824219 11.429688 3.660156 11.1875 3.660156zM12.8125 3.660156C12.570312 3.660156 12.40625 3.863281 12.40625 4.066406 12.40625 4.3125 12.570312 4.472656 12.8125 4.472656 13.058594 4.472656 13.21875 4.3125 13.21875 4.066406 13.21875 3.824219 13.058594 3.660156 12.8125 3.660156zM14.441406 4.472656C14.683594 4.472656 14.847656 4.3125 14.847656 4.066406 14.847656 3.824219 14.683594 3.660156 14.441406 3.660156 14.195312 3.660156 14.035156 3.863281 14.035156 4.066406 14.035156 4.3125 14.195312 4.472656 14.441406 4.472656zM11.1875 2.035156C11.429688 2.035156 11.59375 1.871094 11.59375 1.628906 11.59375 1.382812 11.429688 1.21875 11.1875 1.21875 10.941406 1.21875 10.78125 1.421875 10.78125 1.628906 10.78125 1.871094 10.941406 2.035156 11.1875 2.035156zM12.8125 2.035156C13.058594 2.035156 13.21875 1.871094 13.21875 1.628906 13.21875 1.382812 13.058594 1.21875 12.8125 1.21875 12.570312 1.21875 12.40625 1.421875 12.40625 1.628906 12.40625 1.871094 12.570312 2.035156 12.8125 2.035156zM12 3.253906C12.242188 3.253906 12.40625 3.089844 12.40625 2.847656 12.40625 2.601562 12.242188 2.441406 12 2.441406 11.757812 2.441406 11.59375 2.644531 11.59375 2.847656 11.59375 3.089844 11.757812 3.253906 12 3.253906zM12 3.253906"/>
</svg>

<svg xmlns="http://www.w3.org/2000/svg" width="32" height="32" viewBox="0 0 24 24">
    <path d="M14.848 20.746H9.152a.385.385 0 0 0-.406.406c0 .246.164.407.406.407h5.696c.242 0 .406-.16.406-.407a.385.385 0 0 0-.406-.406zm0 0M14.848 19.117H9.152c-.242 0-.406.164-.406.41 0 .243.164.407.406.407h5.696a.385.385 0 0 0 .406-.407c0-.246-.164-.41-.406-.41zm0 0"/>
    <path d="M16.473 8.23V4.473A4.46 4.46 0 0 0 12 0a4.463 4.463 0 0 0-4.477 4.473V8.23a4.788 4.788 0 0 0-2.03 3.934v6.547C5.492 21.64 7.851 24 10.78 24h2.438c2.93 0 5.289-2.36 5.289-5.29v-6.546c0-1.586-.735-3.027-2.035-3.934zM8.34 5.29v-.817c0-.442.078-.864.219-1.258.054.027.117.039.187.039a.385.385 0 0 0 .406-.406c0-.176-.086-.313-.226-.371.117-.18.25-.352.398-.508a.414.414 0 0 0 .235.066c.246 0 .406-.164.406-.406a.434.434 0 0 0-.035-.18 3.656 3.656 0 0 1 4.14.012.405.405 0 0 0-.035.168c0 .242.16.406.406.406a.464.464 0 0 0 .227-.058c.148.156.281.328.398.507a.42.42 0 0 0-.218.364c0 .242.164.406.406.406a.466.466 0 0 0 .184-.035c.144.394.222.816.222 1.258v6.425c0 .473-.11.918-.305 1.313a.408.408 0 0 0-.508.395c0 .097.028.18.071.245-.16.18-.344.34-.543.477a2.91 2.91 0 0 1-1.156.457c-.016-.219-.176-.367-.406-.367a.411.411 0 0 0-.407.41h-.812c0-.246-.164-.41-.406-.41-.231 0-.387.18-.407.367a2.91 2.91 0 0 1-1.156-.457 3.007 3.007 0 0 1-.543-.477.446.446 0 0 0 .07-.246.385.385 0 0 0-.406-.406.394.394 0 0 0-.098.012c-.05-.098-.093-.2-.132-.3a3.025 3.025 0 0 1-.176-1.012zm9.355 13.42a4.464 4.464 0 0 1-4.476 4.477H10.78a4.464 4.464 0 0 1-4.476-4.476v-6.547a4.01 4.01 0 0 1 1.218-2.89v1.628c0 1.036.418 1.973 1.094 2.649.043.043.086.082.133.125a3.752 3.752 0 0 0 2.52.969h1.46a3.73 3.73 0 0 0 3.743-3.743V9.273c.773.774 1.222 1.79 1.222 2.891zm0 0"/>
    <path d="M10.371 12.203a.408.408 0 0 0-.406.406c0 .246.164.407.406.407.246 0 .41-.16.41-.407 0-.242-.164-.406-.41-.406zm0 0M13.629 12.203a.409.409 0 0 0-.41.406c0 .246.164.407.41.407.242 0 .406-.16.406-.407a.385.385 0 0 0-.406-.406zm0 0M12 12.203a.408.408 0 0 0-.406.406c0 .246.164.407.406.407.242 0 .406-.16.406-.407a.385.385 0 0 0-.406-.406zm0 0M9.559 10.984a.408.408 0 0 0-.407.407c0 .242.164.406.407.406.246 0 .406-.164.406-.406 0-.246-.16-.407-.406-.407zm0 0M10.371 10.578c.246 0 .41-.164.41-.41 0-.242-.164-.406-.41-.406a.408.408 0 0 0-.406.406c0 .246.164.41.406.41zm0 0M13.629 10.578c.242 0 .406-.164.406-.41a.385.385 0 0 0-.406-.406.409.409 0 0 0-.41.406c0 .246.164.41.41.41zm0 0M12 10.578c.242 0 .406-.164.406-.41A.385.385 0 0 0 12 9.762a.408.408 0 0 0-.406.406c0 .246.164.41.406.41zm0 0M11.188 10.984a.406.406 0 0 0-.407.407c0 .242.16.406.406.406a.385.385 0 0 0 .407-.406c0-.246-.164-.407-.406-.407zm0 0M12.813 10.984a.408.408 0 0 0-.407.407c0 .242.164.406.406.406.247 0 .407-.164.407-.406 0-.246-.16-.407-.406-.407zm0 0M14.441 10.984a.406.406 0 0 0-.406.407c0 .242.16.406.406.406a.385.385 0 0 0 .407-.406c0-.246-.164-.407-.407-.407zm0 0M9.559 9.355c.246 0 .406-.164.406-.406 0-.242-.16-.406-.406-.406a.408.408 0 0 0-.407.406c0 .242.164.406.407.406zm0 0M10.371 8.137c.246 0 .41-.164.41-.407 0-.246-.164-.41-.41-.41a.411.411 0 0 0-.406.41c0 .243.164.407.406.407zm0 0M8.746 10.578c.242 0 .406-.164.406-.41a.385.385 0 0 0-.406-.406.406.406 0 0 0-.406.406c0 .246.16.41.406.41zm0 0M8.746 8.137a.385.385 0 0 0 .406-.407c0-.246-.164-.41-.406-.41a.409.409 0 0 0-.406.41c0 .243.16.407.406.407zm0 0M13.629 7.32a.412.412 0 0 0-.41.41c0 .243.164.407.41.407a.385.385 0 0 0 .406-.407c0-.246-.164-.41-.406-.41zm0 0M15.254 9.762a.408.408 0 0 0-.406.406c0 .246.164.41.406.41.246 0 .406-.164.406-.41 0-.242-.16-.406-.406-.406zm0 0M15.254 7.32a.411.411 0 0 0-.406.41c0 .243.164.407.406.407.246 0 .406-.164.406-.407 0-.246-.16-.41-.406-.41zm0 0M8.746 5.695a.385.385 0 0 0 .406-.406c0-.246-.164-.406-.406-.406a.406.406 0 0 0-.406.406c0 .242.16.406.406.406zm0 0M15.254 4.883a.408.408 0 0 0-.406.406c0 .242.164.406.406.406.246 0 .406-.164.406-.406 0-.246-.16-.406-.406-.406zm0 0M12 7.32a.411.411 0 0 0-.406.41c0 .243.164.407.406.407a.385.385 0 0 0 .406-.407c0-.246-.164-.41-.406-.41zm0 0M11.188 8.543a.406.406 0 0 0-.407.406c0 .242.16.406.406.406a.385.385 0 0 0 .407-.406c0-.246-.164-.406-.406-.406zm0 0M12.813 9.355c.246 0 .406-.164.406-.406 0-.242-.16-.406-.406-.406a.408.408 0 0 0-.407.406c0 .242.164.406.406.406zm0 0M14.441 8.543a.406.406 0 0 0-.406.406c0 .242.16.406.406.406a.385.385 0 0 0 .407-.406c0-.246-.164-.406-.407-.406zm0 0M9.559 6.914c.246 0 .406-.16.406-.406 0-.242-.16-.406-.406-.406a.408.408 0 0 0-.407.406c0 .246.164.406.407.406zm0 0M10.371 4.883a.408.408 0 0 0-.406.406c0 .242.164.406.406.406.246 0 .41-.164.41-.406 0-.246-.164-.406-.41-.406zm0 0M13.629 4.883a.409.409 0 0 0-.41.406c0 .242.164.406.41.406a.385.385 0 0 0 .406-.406c0-.246-.164-.406-.406-.406zm0 0M10.371 3.254c.246 0 .41-.164.41-.406 0-.246-.164-.407-.41-.407a.408.408 0 0 0-.406.407c0 .242.164.406.406.406zm0 0M13.629 3.254a.385.385 0 0 0 .406-.406c0-.246-.164-.407-.406-.407a.409.409 0 0 0-.41.407c0 .242.164.406.41.406zm0 0M12 4.883a.408.408 0 0 0-.406.406c0 .242.164.406.406.406a.385.385 0 0 0 .406-.406c0-.246-.164-.406-.406-.406zm0 0M11.188 6.914c.242 0 .406-.16.406-.406a.385.385 0 0 0-.406-.406.406.406 0 0 0-.407.406c0 .246.16.406.406.406zm0 0M12.813 6.914c.246 0 .406-.16.406-.406 0-.242-.16-.406-.406-.406a.408.408 0 0 0-.407.406c0 .246.164.406.406.406zm0 0M14.441 6.102a.406.406 0 0 0-.406.406c0 .246.16.406.406.406.243 0 .407-.16.407-.406a.385.385 0 0 0-.407-.406zm0 0M9.559 4.473c.246 0 .406-.16.406-.407 0-.242-.16-.406-.406-.406a.408.408 0 0 0-.407.406c0 .247.164.407.407.407zm0 0M11.188 3.66a.406.406 0 0 0-.407.406c0 .247.16.407.406.407.243 0 .407-.16.407-.407a.385.385 0 0 0-.406-.406zm0 0M12.813 3.66a.408.408 0 0 0-.407.406c0 .247.164.407.406.407.247 0 .407-.16.407-.407 0-.242-.16-.406-.406-.406zm0 0M14.441 4.473c.243 0 .407-.16.407-.407a.385.385 0 0 0-.407-.406.406.406 0 0 0-.406.406c0 .247.16.407.406.407zm0 0M11.188 2.035a.385.385 0 0 0 .406-.406c0-.246-.164-.41-.406-.41a.406.406 0 0 0-.407.41c0 .242.16.406.406.406zm0 0M12.813 2.035c.246 0 .406-.164.406-.406 0-.246-.16-.41-.406-.41a.409.409 0 0 0-.407.41c0 .242.164.406.406.406zm0 0M12 3.254a.385.385 0 0 0 .406-.406c0-.246-.164-.407-.406-.407a.408.408 0 0 0-.406.407c0 .242.164.406.406.406zm0 0"/>
</svg>
